X:1
Q:1/4=114
L:1/8
M:1/4
K:C clef=G2
V:1
%%MIDI program 2
[GC]15/16[EC]15/16|[cE]15/8|[GE]15/8|E15/8|
[cE]15/8|[B-D-]2|[B-D-]2|[B-D-]3/2[BD]3/16z3/8|
[FD]15/16D15/16|[BD]15/8|[DB,]15/8|[FC]15/8|
[AD]15/8|[G-E-]2|[G-E-]2|[G-E-]3/2[GE]3/16z3/8|
[EC]15/16C15/16|[AC]15/8|[EC]15/8|[GE]15/8|
[GE]15/8|[F-C-]2|[FC]7/8z/8[GE]15/16|[AF]15/8|
[BF]15/16[GF]15/16|[eE]15/8|[cE]15/8|[G-D]31/32[G-E]15/16|
[dF]15/8|[c-E-]2|[cE]7/4z7/32|z2|
[cE]15/8|[B-D-]2|[BD]7/8z/8[cE]15/16|[dF]15/8|
[AF]15/8|[G-E-]2|[GE]7/8z/8[cF]15/16|[GE]15/8|
[cE]15/8|[BD]15/16[DB,]15/16|[FD]15/16[GE]15/16|[BF]15/8|
[AD]15/8|[GE]31/32[EC]15/16|[GE]15/16[cE]15/16|[GE]15/8|
[GE]15/16[GE]15/16|[AF]15/16[A-F-]|[AF]7/8z/8A15/16|[B^G]15/16[d-^G-]|
[d^G]7/8z/8[B^G]15/16|[c-A-]2|[cA]7/8z/8[cE]15/16|[fA]15/8|
[fA]15/8|[G-e-]2|[Ge]7/4[G-]7/32|[d-G-]3/2[d-G]3/16[d-]/4|
[Fd]7/4|[c-E-]2|[c-E-]2|[c-E-]3/2[cE]3/16
L:1/8
M:1/4
K:C clef=F4
V:2
%%MIDI program 0
[G,C,]15/16[G,C,]15/16|[G,C,]15/8|[CC,]15/8|[G,C,]15/8|
[G,E,]15/8|G,2-|G,2-|G,3/2-G,3/16z3/8|
[B,G,]15/16[B,G,]15/16|G,15/8|[G,G,,]15/8|[F,A,,]15/8|
[F,B,,]15/8|[E,-C,-]2|[E,-C,-]2|[E,-C,-]3/2[E,C,]3/16z3/8|
[A,C,]15/16[A,E,]15/16|[A,A,,]15/8|[G,C,]15/8|[^A,C,]15/8|
[^A,C,]15/8|[A,-F,-]2|[A,F,]7/8z/8[G,E,]15/16|[F,D,]15/8|
[G,D,]15/16[G,B,,]15/16|[G,C,]15/8|[G,E,]15/8|[B,G,]15/8|
[G,G,,]15/8|[G,-C,-]2|[G,C,]7/4z7/32|z2|
[G,C,]15/8|G,2-|G,7/8z/8[CG,]15/16|[B,G,]15/8|
[DB,,]15/8|[G,-C,-]2|[G,C,]7/8z/8[A,C,]15/16|[CC,]15/8|
[G,C,]15/8|[G,-G,,-]2|[G,G,,]7/8z/8[CG,,]15/16|[DG,,]15/16[DA,,]15/16|
[F,B,,]15/16[F,G,,]15/16|[G,C,]15/8|[G,C,]15/16[G,C,]15/16|[CC,]15/8|
[CC,]15/16[CC,]15/16|[CF,]15/16[C-F,-]|[CF,]7/8z/8[CF,]15/16|[DE,]15/16[B,-E,-]|
[B,E,]7/8z/8[DE,]15/16|[C-A,-]2|[CA,]7/8z/8[CA,]15/16|[DF,]15/8|
[CF,]15/8|[C-G,-]2|[CG,]7/4z7/32|[G,,-B,]31/32[G,,-A,]31/32|
[G,,B,]15/8|[C-C,-]2|[C-C,-]2|[C-C,-]3/2[CC,]3/16


